packages/tokens/icons/file/size32Px.svg

<svg viewBox="0 0 32 32" fill="none" xmlns="http://www.w3.org/2000/svg" width="1em" height="1em"><path d="M25 9C25.2761 9 25.5 8.77614 25.5 8.5C25.5 8.22386 25.2761 8 25 8V9ZM21.0858 4.08579L20.7322 4.43934L21.0858 4.08579ZM23.5 28L8.5 28V29L23.5 29V28ZM7 26.5L7 5.5H6L6 26.5H7ZM8.5 4L19.6716 4V3L8.5 3V4ZM25 9.32843L25 26.5H26L26 9.32843H25ZM20 3.98077V6.5H21V3.98077H20ZM22.5 9H25V8H22.5V9ZM20.7322 4.43934L24.5607 8.26777L25.2678 7.56066L21.4393 3.73223L20.7322 4.43934ZM20 6.5C20 7.88071 21.1193 9 22.5 9V8C21.6716 8 21 7.32843 21 6.5H20ZM26 9.32843C26 8.66539 25.7366 8.0295 25.2678 7.56066L24.5607 8.26777C24.842 8.54907 25 8.9306 25 9.32843H26ZM19.6716 4C20.0694 4 20.4509 4.15804 20.7322 4.43934L21.4393 3.73223C20.9705 3.26339 20.3346 3 19.6716 3V4ZM8.5 28C7.67157 28 7 27.3284 7 26.5H6C6 27.8807 7.11929 29 8.5 29V28ZM23.5 29C24.8807 29 26 27.8807 26 26.5H25C25 27.3284 24.3284 28 23.5 28V29ZM7 5.5C7 4.67157 7.67157 4 8.5 4V3C7.11929 3 6 4.11929 6 5.5H7Z" fill="currentColor"/><line x1="9.5" y1="10.5" x2="17.5" y2="10.5" stroke="currentColor" stroke-linecap="round"/><path d="M9.5 14.5L22.5 14.5" stroke="currentColor" stroke-linecap="round"/><path d="M9.5 18.5L22.5 18.5" stroke="currentColor" stroke-linecap="round"/><path d="M9.5 23L22.5 23" stroke="currentColor" stroke-linecap="round"/></svg>

<svg xmlns="http://www.w3.org/2000/svg" fill="none" viewBox="0 0 32 32" width="1em" height="1em"><path fill="currentColor" d="M25 9a.5.5 0 0 0 0-1v1Zm-3.914-4.914-.354.353.354-.353ZM23.5 28h-15v1h15v-1ZM7 26.5v-21H6v21h1ZM8.5 4h11.172V3H8.5v1ZM25 9.328V26.5h1V9.328h-1Zm-5-5.347V6.5h1V3.98h-1ZM22.5 9H25V8h-2.5v1Zm-1.768-4.56 3.829 3.828.707-.707-3.829-3.829-.707.707ZM20 6.5A2.5 2.5 0 0 0 22.5 9V8A1.5 1.5 0 0 1 21 6.5h-1Zm6 2.828a2.5 2.5 0 0 0-.732-1.767l-.707.707A1.5 1.5 0 0 1 25 9.328h1ZM19.672 4a1.5 1.5 0 0 1 1.06.44l.707-.708A2.5 2.5 0 0 0 19.672 3v1ZM8.5 28A1.5 1.5 0 0 1 7 26.5H6A2.5 2.5 0 0 0 8.5 29v-1Zm15 1a2.5 2.5 0 0 0 2.5-2.5h-1a1.5 1.5 0 0 1-1.5 1.5v1ZM7 5.5A1.5 1.5 0 0 1 8.5 4V3A2.5 2.5 0 0 0 6 5.5h1Z"/><path stroke="currentColor" stroke-linecap="round" d="M9.5 10.5h8m-8 4h13m-13 4h13M9.5 23h13"/></svg>
